icons/1_Primary/Bitrise.svg

<svg xmlns="http://www.w3.org/2000/svg" viewBox="0 0 1024 1024">
   <circle cx="512" cy="512" r="512" style="fill:#6f309f"/>
   <path d="M450.64 561.4h122.75c0 33.9-27.48 61.38-61.38 61.38s-61.38-27.48-61.38-61.38Zm-75.81-75.8c-20.93 0-37.91 16.97-37.91 37.9h75.8c0-20.93-16.97-37.9-37.9-37.9Zm274.66 0c-20.93 0-37.9 16.97-37.9 37.9h75.79c0-20.93-16.97-37.9-37.9-37.9ZM512.02 296.05c15.66 0 28.36-12.7 28.36-28.36s-12.7-28.36-28.36-28.36-28.36 12.69-28.36 28.36 12.7 28.36 28.36 28.36ZM767.61 679.7c-14.49 16.23-34.46 25.73-56.21 26.74-47.78 2.24-121.16 4.9-199.39 4.9s-151.61-2.67-199.39-4.9c-21.76-1.02-41.71-10.52-56.21-26.74-14.47-16.22-21.66-37.08-20.23-58.77 2.56-38.91 6.05-73.48 10.36-102.76 6.38-43.3 15.91-87.04 22.79-116.12 8.2-34.66 37.59-59.44 73.14-61.65 34.89-2.17 92.63-4.77 169.53-4.77s134.64 2.59 169.54 4.77c35.55 2.21 64.94 26.99 73.14 61.65 6.88 29.08 16.42 72.85 22.79 116.12 4.31 29.27 7.8 63.85 10.36 102.75 1.44 21.69-5.75 42.56-20.23 58.77Zm-17.59-56.26c-2.5-37.9-5.87-71.46-10.04-99.73-6.17-41.93-15.47-84.55-22.18-112.91-4.33-18.3-19.84-31.38-38.61-32.54-34.36-2.14-91.25-4.7-167.18-4.7s-132.82 2.56-167.18 4.7c-18.77 1.17-34.29 14.25-38.61 32.54-6.7 28.35-16 70.95-22.18 112.91-4.16 28.27-7.54 61.83-10.04 99.73-.76 11.45 3.04 22.46 10.68 31.02 7.67 8.58 18.21 13.6 29.71 14.14 47.38 2.22 120.12 4.86 197.62 4.86s150.24-2.64 197.62-4.86c11.5-.54 22.05-5.56 29.71-14.14 7.64-8.55 11.43-19.57 10.68-31.02h.03Z" style="fill:#fff"/>
</svg>

<svg width="1024" height="1024" viewBox="0 0 1024 1024" fill="none" xmlns="http://www.w3.org/2000/svg">
<g clip-path="url(#clip0_2_1653)">
<path d="M512 1024C794.77 1024 1024 794.77 1024 512C1024 229.23 794.77 0 512 0C229.23 0 0 229.23 0 512C0 794.77 229.23 1024 512 1024Z" fill="#8C72BD"/>
<path d="M450.64 561.4H573.39C573.39 595.3 545.91 622.78 512.01 622.78C478.11 622.78 450.63 595.3 450.63 561.4H450.64ZM374.83 485.6C353.9 485.6 336.92 502.57 336.92 523.5H412.72C412.72 502.57 395.75 485.6 374.82 485.6H374.83ZM649.49 485.6C628.56 485.6 611.59 502.57 611.59 523.5H687.38C687.38 502.57 670.41 485.6 649.48 485.6H649.49ZM512.02 296.05C527.68 296.05 540.38 283.35 540.38 267.69C540.38 252.03 527.68 239.33 512.02 239.33C496.36 239.33 483.66 252.02 483.66 267.69C483.66 283.36 496.36 296.05 512.02 296.05ZM767.61 679.7C753.12 695.93 733.15 705.43 711.4 706.44C663.62 708.68 590.24 711.34 512.01 711.34C433.78 711.34 360.4 708.67 312.62 706.44C290.86 705.42 270.91 695.92 256.41 679.7C241.94 663.48 234.75 642.62 236.18 620.93C238.74 582.02 242.23 547.45 246.54 518.17C252.92 474.87 262.45 431.13 269.33 402.05C277.53 367.39 306.92 342.61 342.47 340.4C377.36 338.23 435.1 335.63 512 335.63C588.9 335.63 646.64 338.22 681.54 340.4C717.09 342.61 746.48 367.39 754.68 402.05C761.56 431.13 771.1 474.9 777.47 518.17C781.78 547.44 785.27 582.02 787.83 620.92C789.27 642.61 782.08 663.48 767.6 679.69L767.61 679.7ZM750.02 623.44C747.52 585.54 744.15 551.98 739.98 523.71C733.81 481.78 724.51 439.16 717.8 410.8C713.47 392.5 697.96 379.42 679.19 378.26C644.83 376.12 587.94 373.56 512.01 373.56C436.08 373.56 379.19 376.12 344.83 378.26C326.06 379.43 310.54 392.51 306.22 410.8C299.52 439.15 290.22 481.75 284.04 523.71C279.88 551.98 276.5 585.54 274 623.44C273.24 634.89 277.04 645.9 284.68 654.46C292.35 663.04 302.89 668.06 314.39 668.6C361.77 670.82 434.51 673.46 512.01 673.46C589.51 673.46 662.25 670.82 709.63 668.6C721.13 668.06 731.68 663.04 739.34 654.46C746.98 645.91 750.77 634.89 750.02 623.44Z" fill="white"/>
</g>
<defs>
<clipPath id="clip0_2_1653">
<rect width="1024" height="1024" fill="white"/>
</clipPath>
</defs>
</svg>
